public/img/first-mission.svg

<svg width="928" height="619" fill="none" xmlns="http://www.w3.org/2000/svg"><path d="M529.718 618.04V381.72l-6.438.265V618.04h6.438zm-30.901-227.36h-6.438v227.36h6.438V390.68zm-27.039 15.68h-6.438v211.68h6.438V406.36zm-56.651 36.96h-6.438v174.72h6.438V443.32zm-29.613 31.36h-6.438v143.36h6.438V474.68zm55.363-52.64h-5.15v196h5.15v-196zm-112.015 106.4h-7.725v89.6h7.725v-89.6zM211.695 459h-7.725v159.04h7.725V459zm56.652 3.36h-6.438v155.68h6.438V462.36zm-142.917 0h-7.725v155.68h7.725V462.36zm56.651 81.76h-6.437v73.92h6.437v-73.92zm-88.84-54.88h-6.437v128.8h6.437v-128.8zm-24.462 62.72h-7.725v66.08h7.725v-66.08zm-32.188 36.96h-7.725v29.12h7.725v-29.12zm-24.464 0H5.69v29.12h6.438v-29.12zM241.308 431h-7.725v187.04h7.725V431zm59.228 144.48h-7.725v42.56h7.725v-42.56zm-145.491 0h-7.726v42.56h7.726v-42.56zM583.795 431h-7.726v187.04h7.726V431zm-27.039-36.96h-7.726v224h7.726v-224zm91.415 106.4h-6.438v117.6h6.438v-117.6zm-292.271 0h-6.438v117.6h6.438v-117.6zm319.31-4.48h-6.438v122.08h6.438V495.96zm52.789-107.52h-6.437v229.6h6.437v-229.6zm33.476 60.48h-6.438v169.12h6.438V448.92zm33.476 41.44h-7.725v127.68h7.725V490.36zm32.188-165.76h-5.15v293.44h5.15V324.6zm34.763 57.12h-7.725v236.32h7.725V381.72zm32.189-142.24h-6.438v378.56h6.438V239.48zm33.476 209.44h-6.438v169.12h6.438V448.92zM615.982 459h-7.725v159.04h7.725V459zm86.266 31.36h-7.726v127.68h7.726V490.36z" fill="#573CDA"/><path d="M527.142 80.44h-16.738v41.44h16.738V80.44z" fill="#AB9DEC"/><path d="M922.417.92H911.56v9.412h2.324L638.249 340.017l-118.6-204.199a.672.672 0 00-.257-.247.807.807 0 00-.738-.019.718.718 0 00-.279.227L297.819 456.572h-9.306v1.109l-110.065-83.108a.781.781 0 00-.487-.156.784.784 0 00-.483.168L10.783 507.828H.539v9.412h10.857v-8.188l166.589-133.158 110.528 83.46v6.63h10.857v-9.204l219.576-319.369 118.542 204.098a.666.666 0 00.243.24c.103.06.223.096.347.105a.817.817 0 00.364-.055.688.688 0 00.284-.204L915.682 10.332h6.735V.92z" fill="url(#paint0_linear_603_40451)"/><path d="M583 84.5a6.501 6.501 0 01-11.096 4.596 6.502 6.502 0 01.985-10A6.5 6.5 0 01583 84.5z" fill="#AB9DEC"/><path d="M471 333.5a6.5 6.5 0 11-13 .001 6.5 6.5 0 0113-.001z" fill="#1BC082"/><path d="M114 211.5a6.5 6.5 0 11-13 .001 6.5 6.5 0 0113-.001z" fill="#AB9DEC"/><path fill-rule="evenodd" clip-rule="evenodd" d="M25.003 518.36v-79.52h1.288v79.52h-1.288zm51.501-41.44v-78.4h1.287v78.4h-1.287zm104.291-43.68v-79.52h1.287v79.52h-1.287zM233.584 263v-80.64h1.288V263h-1.288zm51.501 129.92V282.04h1.287v110.88h-1.287zm52.789-25.76V256.28h1.288v110.88h-1.288zm51.502 72.8V329.08h2.575v110.88h-2.575zm104.29-81.76V247.32h2.575V358.2h-2.575zm105.578-163.52V68.12h1.288v126.56h-1.288zm51.502 19.04V87.16h1.288v126.56h-1.288zm104.291-71.68V17.72h2.575v124.32h-2.575zm104.29 71.68V87.16h1.288v126.56h-1.288zM702.248 324.6V220.44h1.288V324.6h-1.288z" fill="#1BC082"/><path d="M32.728 476.92h-15.45v43.68h15.45v-43.68zm52.789-53.76h-15.45v42.56h15.45v-42.56zm51.502-94.08h-15.451v104.16h15.451V329.08zm52.789-4.48h-15.451v42.56h15.451V324.6zm52.788-87.36h-16.738V347h16.738V237.24z" fill="#AB9DEC"/><path d="M292.811 353.72H277.36v56h15.451v-56zm54.076-5.6h-16.738V431h16.738v-82.88z" fill="#1BC082"/><path d="M398.389 269.72h-15.451V380.6h15.451V269.72z" fill="#AB9DEC"/><path d="M502.679 185.72h-15.45v109.76h15.45V185.72z" fill="#1BC082"/><path d="M608.258 159.96H591.52v40.32h16.738v-40.32z" fill="#AB9DEC"/><path d="M659.759 149.88h-16.738v110.88h16.738V149.88zm51.501 145.6h-16.738v41.44h16.738v-41.44zm51.502-185.92h-15.45v208.32h15.45V109.56zm104.29 64.96h-16.738v97.44h16.738v-97.44z" fill="#1BC082"/><path d="M393 175.5a6.5 6.5 0 11-13 .001 6.5 6.5 0 0113-.001z" fill="#AB9DEC"/><defs><linearGradient id="paint0_linear_603_40451" x1="881.204" y1="48.005" x2="253.516" y2="574.152" gradientUnits="userSpaceOnUse"><stop stop-color="#23C89A"/><stop offset=".38" stop-color="#1B9876"/><stop offset="1"/></linearGradient></defs></svg>

<svg width="928" height="619" viewBox="0 0 928 619" fill="none" xmlns="http://www.w3.org/2000/svg">
<path d="M529.718 618.04V381.72L523.28 381.985V618.04H529.718Z" fill="#573CDA"/>
<path d="M498.817 390.68H492.379V618.04H498.817V390.68Z" fill="#573CDA"/>
<path d="M471.778 406.36H465.34V618.04H471.778V406.36Z" fill="#573CDA"/>
<path d="M415.127 443.32H408.689V618.04H415.127V443.32Z" fill="#573CDA"/>
<path d="M385.514 474.68H379.076V618.04H385.514V474.68Z" fill="#573CDA"/>
<path d="M440.877 422.04H435.727V618.04H440.877V422.04Z" fill="#573CDA"/>
<path d="M328.862 528.44H321.137V618.04H328.862V528.44Z" fill="#573CDA"/>
<path d="M211.695 459H203.97V618.04H211.695V459Z" fill="#573CDA"/>
<path d="M268.347 462.36H261.909V618.04H268.347V462.36Z" fill="#573CDA"/>
<path d="M125.43 462.36H117.705V618.04H125.43V462.36Z" fill="#573CDA"/>
<path d="M182.081 544.12H175.644V618.04H182.081V544.12Z" fill="#573CDA"/>
<path d="M93.2414 489.24H86.8037V618.04H93.2414V489.24Z" fill="#573CDA"/>
<path d="M68.7789 551.96H61.0537V618.04H68.7789V551.96Z" fill="#573CDA"/>
<path d="M36.5914 588.92H28.8662V618.04H36.5914V588.92Z" fill="#573CDA"/>
<path d="M12.1271 588.92H5.68945V618.04H12.1271V588.92Z" fill="#573CDA"/>
<path d="M241.308 431H233.583V618.04H241.308V431Z" fill="#573CDA"/>
<path d="M300.536 575.48H292.811V618.04H300.536V575.48Z" fill="#573CDA"/>
<path d="M155.045 575.48H147.319V618.04H155.045V575.48Z" fill="#573CDA"/>
<path d="M583.795 431H576.069V618.04H583.795V431Z" fill="#573CDA"/>
<path d="M556.756 394.04H549.03V618.04H556.756V394.04Z" fill="#573CDA"/>
<path d="M648.171 500.44H641.733V618.04H648.171V500.44Z" fill="#573CDA"/>
<path d="M355.9 500.44H349.462V618.04H355.9V500.44Z" fill="#573CDA"/>
<path d="M675.21 495.96H668.772V618.04H675.21V495.96Z" fill="#573CDA"/>
<path d="M727.999 388.44H721.562V618.04H727.999V388.44Z" fill="#573CDA"/>
<path d="M761.475 448.92H755.037V618.04H761.475V448.92Z" fill="#573CDA"/>
<path d="M794.951 490.36H787.226V618.04H794.951V490.36Z" fill="#573CDA"/>
<path d="M827.139 324.6H821.989V618.04H827.139V324.6Z" fill="#573CDA"/>
<path d="M861.902 381.72H854.177V618.04H861.902V381.72Z" fill="#573CDA"/>
<path d="M894.091 239.48H887.653V618.04H894.091V239.48Z" fill="#573CDA"/>
<path d="M927.567 448.92H921.129V618.04H927.567V448.92Z" fill="#573CDA"/>
<path d="M615.982 459H608.257V618.04H615.982V459Z" fill="#573CDA"/>
<path d="M702.248 490.36H694.522V618.04H702.248V490.36Z" fill="#573CDA"/>
<path d="M527.142 80.44H510.404V121.88H527.142V80.44Z" fill="#AB9DEC"/>
<path d="M922.417 0.920105H911.56V10.3321H913.884L638.249 340.017L519.649 135.818C519.59 135.717 519.502 135.632 519.392 135.571C519.282 135.51 519.156 135.476 519.026 135.472C518.896 135.47 518.768 135.498 518.654 135.552C518.54 135.605 518.444 135.684 518.375 135.779L297.819 456.572H288.513V457.681L178.448 374.573C178.314 374.47 178.14 374.414 177.961 374.417C177.781 374.419 177.609 374.479 177.478 374.585L10.7828 507.828H0.539062V517.24H11.3956V509.052L177.985 375.894L288.513 459.354V465.984H299.37V456.78L518.946 137.411L637.488 341.509C637.544 341.606 637.627 341.688 637.731 341.749C637.834 341.809 637.954 341.845 638.078 341.854C638.203 341.863 638.328 341.845 638.442 341.799C638.556 341.754 638.654 341.684 638.726 341.595L915.682 10.3321H922.417V0.920105Z" fill="url(#paint0_linear_603_40451)"/>
<path d="M583 84.5C583 85.7856 582.619 87.0423 581.905 88.1112C581.19 89.1801 580.175 90.0133 578.988 90.5053C577.8 90.9972 576.493 91.126 575.232 90.8752C573.971 90.6244 572.813 90.0053 571.904 89.0963C570.995 88.1872 570.376 87.029 570.125 85.7681C569.874 84.5072 570.003 83.2003 570.495 82.0126C570.987 80.8249 571.82 79.8097 572.889 79.0955C573.958 78.3813 575.215 78 576.5 78.0001C578.224 78.0001 579.877 78.6849 581.096 79.9038C582.315 81.1228 583 82.7761 583 84.5Z" fill="#AB9DEC"/>
<path d="M471 333.5C471 334.786 470.619 336.042 469.905 337.111C469.19 338.18 468.175 339.013 466.987 339.505C465.8 339.997 464.493 340.126 463.232 339.875C461.971 339.624 460.813 339.005 459.904 338.096C458.995 337.187 458.376 336.029 458.125 334.768C457.874 333.507 458.003 332.2 458.495 331.013C458.987 329.825 459.82 328.81 460.889 328.096C461.958 327.381 463.214 327 464.5 327C465.354 327 466.199 327.168 466.987 327.495C467.776 327.821 468.493 328.3 469.096 328.904C469.7 329.507 470.179 330.224 470.505 331.013C470.832 331.801 471 332.647 471 333.5Z" fill="#1BC082"/>
<path d="M114 211.5C114 212.786 113.619 214.042 112.905 215.111C112.19 216.18 111.175 217.013 109.987 217.505C108.8 217.997 107.493 218.126 106.232 217.875C104.971 217.624 103.813 217.005 102.904 216.096C101.995 215.187 101.376 214.029 101.125 212.768C100.874 211.507 101.003 210.2 101.495 209.013C101.987 207.825 102.82 206.81 103.889 206.096C104.958 205.381 106.214 205 107.5 205C108.354 205 109.199 205.168 109.987 205.495C110.776 205.822 111.493 206.3 112.096 206.904C112.7 207.507 113.179 208.224 113.505 209.013C113.832 209.801 114 210.647 114 211.5Z" fill="#AB9DEC"/>
<path fill-rule="evenodd" clip-rule="evenodd" d="M25.0029 518.36V438.84H26.2905V518.36H25.0029Z" fill="#1BC082"/>
<path fill-rule="evenodd" clip-rule="evenodd" d="M76.5039 476.92V398.52H77.7914V476.92H76.5039Z" fill="#1BC082"/>
<path fill-rule="evenodd" clip-rule="evenodd" d="M180.795 433.24V353.72H182.082V433.24H180.795Z" fill="#1BC082"/>
<path fill-rule="evenodd" clip-rule="evenodd" d="M233.584 263V182.36H234.872V263H233.584Z" fill="#1BC082"/>
<path fill-rule="evenodd" clip-rule="evenodd" d="M285.085 392.92V282.04H286.372V392.92H285.085Z" fill="#1BC082"/>
<path fill-rule="evenodd" clip-rule="evenodd" d="M337.874 367.16V256.28H339.162V367.16H337.874Z" fill="#1BC082"/>
<path fill-rule="evenodd" clip-rule="evenodd" d="M389.376 439.96V329.08H391.951V439.96H389.376Z" fill="#1BC082"/>
<path fill-rule="evenodd" clip-rule="evenodd" d="M493.666 358.2V247.32H496.241V358.2H493.666Z" fill="#1BC082"/>
<path fill-rule="evenodd" clip-rule="evenodd" d="M599.244 194.68V68.1202H600.532V194.68H599.244Z" fill="#1BC082"/>
<path fill-rule="evenodd" clip-rule="evenodd" d="M650.746 213.72V87.1602H652.034V213.72H650.746Z" fill="#1BC082"/>
<path fill-rule="evenodd" clip-rule="evenodd" d="M755.037 142.04V17.7202H757.612V142.04H755.037Z" fill="#1BC082"/>
<path fill-rule="evenodd" clip-rule="evenodd" d="M859.327 213.72V87.1601H860.615V213.72H859.327Z" fill="#1BC082"/>
<path fill-rule="evenodd" clip-rule="evenodd" d="M702.248 324.6V220.44H703.536V324.6H702.248Z" fill="#1BC082"/>
<path d="M32.7278 476.92H17.2773V520.6H32.7278V476.92Z" fill="#AB9DEC"/>
<path d="M85.5169 423.16H70.0664V465.72H85.5169V423.16Z" fill="#AB9DEC"/>
<path d="M137.019 329.08H121.568V433.24H137.019V329.08Z" fill="#AB9DEC"/>
<path d="M189.808 324.6H174.357V367.16H189.808V324.6Z" fill="#AB9DEC"/>
<path d="M242.596 237.24H225.858V347H242.596V237.24Z" fill="#AB9DEC"/>
<path d="M292.811 353.72H277.36V409.72H292.811V353.72Z" fill="#1BC082"/>
<path d="M346.887 348.12H330.149V431H346.887V348.12Z" fill="#1BC082"/>
<path d="M398.389 269.72H382.938V380.6H398.389V269.72Z" fill="#AB9DEC"/>
<path d="M502.679 185.72H487.229V295.48H502.679V185.72Z" fill="#1BC082"/>
<path d="M608.258 159.96H591.52V200.28H608.258V159.96Z" fill="#AB9DEC"/>
<path d="M659.759 149.88H643.021V260.76H659.759V149.88Z" fill="#1BC082"/>
<path d="M711.26 295.48H694.522V336.92H711.26V295.48Z" fill="#1BC082"/>
<path d="M762.762 109.56H747.312V317.88H762.762V109.56Z" fill="#1BC082"/>
<path d="M867.052 174.52H850.314V271.96H867.052V174.52Z" fill="#1BC082"/>
<path d="M393 175.5C393 176.786 392.619 178.042 391.905 179.111C391.19 180.18 390.175 181.013 388.988 181.505C387.8 181.997 386.493 182.126 385.232 181.875C383.971 181.624 382.813 181.005 381.904 180.096C380.995 179.187 380.376 178.029 380.125 176.768C379.874 175.507 380.003 174.2 380.495 173.013C380.987 171.825 381.82 170.81 382.889 170.096C383.958 169.381 385.214 169 386.5 169C388.224 169 389.877 169.685 391.096 170.904C392.315 172.123 393 173.776 393 175.5Z" fill="#AB9DEC"/>
<defs>
<linearGradient id="paint0_linear_603_40451" x1="881.204" y1="48.0052" x2="253.516" y2="574.152" gradientUnits="userSpaceOnUse">
<stop stop-color="#23C89A"/>
<stop offset="0.380208" stop-color="#1B9876"/>
<stop offset="1"/>
</linearGradient>
</defs>
</svg>
